assets/icons/functional/media/television-simple.svg

<svg width="32" height="32" viewBox="0 0 32 32" fill="none" xmlns="http://www.w3.org/2000/svg"><g id="Icon-TelevisionSimple"><g clip-path="url(#clip0_12_2705)"><g id="size=md (32px)"><path id="Vector" d="M27 9H5C4.44772 9 4 9.44772 4 10V25C4 25.5523 4.44772 26 5 26H27C27.5523 26 28 25.5523 28 25V10C28 9.44772 27.5523 9 27 9Z" stroke="#101828" stroke-width="2" stroke-linecap="round" stroke-linejoin="round"/><path id="Vector_2" d="M10 3L16 9L22 3" stroke="#101828" stroke-width="2" stroke-linecap="round" stroke-linejoin="round"/></g></g></g><defs><clipPath id="clip0_12_2705"><rect width="32" height="32" rx="5" fill="white"/></clipPath></defs></svg>

<svg xmlns="http://www.w3.org/2000/svg" width="32" height="32" fill="none"><g clip-path="url(#a)"><path stroke="#101828" stroke-linecap="round" stroke-linejoin="round" stroke-width="2" d="M27 9H5a1 1 0 0 0-1 1v15a1 1 0 0 0 1 1h22a1 1 0 0 0 1-1V10a1 1 0 0 0-1-1ZM10 3l6 6 6-6"/></g><defs><clipPath id="a"><rect width="32" height="32" fill="#fff" rx="5"/></clipPath></defs></svg>
